X:1
T:Quelqu'un disoit
T:Clément Janequin
T:Source : Livre VII de chansons nouvelles à 4 ---Paris---N.du Chemin---1550. Editor : André Vierendeels (01/02/18). Notes : Original clefs : G2, C2, C3, F3 Original note values have been halved Editorial accidentals above the stave
T:Quelqu'un disoit
T:©
T:©
T:©
T:©
C:Clément Janequin
Z:©
%%score [ 1 2 [ 3 4 ] ]
L:1/8
Q:1/4=120
M:2/2
K:F
V:1 treble nm="Soprano 1" snm="S 1"
V:2 treble nm="Soprano 2" snm="S 2"
V:3 treble-8 nm="Tenor 1" snm="T 1"
V:4 treble-8 nm="Tenor 2" snm="T 2"
V:1
 G4 G2 G2 | dcde f2 g2 | f2 d2 d2 f2 | e2 d2 d2 c2 | d3 c/B/ AG A2 | G2 d2 d4 | e4 d2 c2 | %7
w: Quel- qu'un me|di- * * * * soit|l'aul- tre iour, me|di- soit l'aul- tre|iour, _ _ _ _ _|_ que ce|moys est me-|
w: Ce moys de-|di- * * * * é|à l'a- mour, de-|di- é à l'a-|mour, _ _ _ _ _|_ à noz|plai- sirs (ce|
 B2 A2 G4 |1 F8 :|2 F4 z4 || B2 B2 A2 d2- | d2 d2 d2 d2 | g4 f4 | e2 e2 d4 | c4 z2 f2 | %15
w: lan- co- li-|que,|que,|le ros- si- gnol,|_ le ros- si-|gnol taist|sa mu- si-|que, aux|
w: croy- ie)à pic-|que,|||||||
 f2 e2 dcde | f2 g4 f2- | f2 e2 d4 | z4 z2 f2 | f2 e2 dcde | f2 g4 f2- | f2 e2 d2 d2 | d4 d4 | %23
w: champs n'ap- pa- * * *|* roist nul-|* le fleur,|le|so- leil ca- * * *|* che sa|_ lu- eur, il|sem- ble|
w: ||||||||
 c2 d2 c2 B2 | e4 d2 d2 | c2 B2 e4 | d6 c2 | B2 A2 G2 f2 | e2 d2 c2 A2 | c2 c2 B2 A2 | d4 c2 B2 | %31
w: brief que tout la-|men- te, que|tout la- men-|te, ie|luy res- pondz, ie|luy res- pondz m'a-|my- e'ab- sen- te,|ie luy res-|
w: ||||||||
 A2 d2 d2 d2 | c2 c2 B2 A2 | G4 F2 G2 | A2 A2 A4 | B4 A2 G2- |"^#" G2 F2 G2 G2 | A2 A2 A4 | %38
w: pondz m'a- my- e'ab-|sen- te, m'a- my-|e'ab- sen- t'en|ce pa- is|tout est en|_ _ pleur, en|ce pa- is|
w: |||||||
 B4 A2 G2- |[M:2/4]"^#" G2 F2 |[M:2/2] G8 |] %41
w: tout est en-||pleur.|
w: |||
V:2
 z4 B4 | B4 B4 | A2 B2 A3 B | cBAG A2 A2 | A2 F2 F2 F2 | B2 B2 B2 B2 | c4 A4 | F2 F2 D4 |1 D8 :|2 %9
w: Quel-|qu'un me|di- soit l'aul- *|* * * * * tre|iour, que ce moys|est, que ce moys|est me-|lan- co- li-|que,|
w: Ce|moys de-|di- é à _|_ _ _ _ _ l'a-|mour, à noz plai-|sirs, à noz plai-|sirs (ce|croy- ie)à pic-|que|
 D2 D2 C2 C2 || G2 G2 F2 F2 | B2 B2 A2 A2 | d4 A4 | z2 A2 F2 D2 | A2 A4 A2 | A2 c2 B2 B2 | %16
w: que, le ros- si-|gnol, le ros- si-|gnol taist sa mu-|si- que,|aux champs n'ap-|pa- roist nul-|le fleur, nul- le|
w: |||||||
 A2 c2 B2 A2 | z2 G2 G2 D2 | A2 c2 B2 B2 | A2 z2 B2 B2 | A2 c2 B4 | A2 c2 B2 B2 | B4 B4 | %23
w: fleur, le so- leil,|le so- leil|ca- che sa lu-|eur, le so-|leil ca- che|sa lu- eur, il|sem- ble|
w: |||||||
 A2 A2 A2 F2 | c4 B2 A2 | A2 F2 c4 | B4 A2 G2- | G2 F2 G2 z F | G2 G2 A2 F2 | E2 F2 G2 A2- | %30
w: brief que tout la-|men- te, que|tout la- men-|te, ie luy|_ res- pondz, ie|luy res- pondz m'a-|mu- e'ab- sen- *|
w: |||||||
 AG G2 A2 F2 | F2 D2 D2 F2 | F2 F2 D4- | D4 D2 D2 | F2 F2 F4 | G4 E4 | D4 D2 D2 | F2 F2 F4 | %38
w: * * te, ie luy|res- pondz m'a- my-|e'ab- sen- *|* te, en|ce pa- is|tout est|en pleur, en|ce pa- is|
w: ||||||||
 G4 E4 |[M:2/4] D4 |[M:2/2] D8 |] %41
w: tout est|en|pleur.|
w: |||
V:3
 z4 G4 | G2 G2 dcde | f2 g2 fgaf | gfed e2 e2 | d4 z2 d2 | d4 g4- | g4 f3 e | d2 c2 B4 |1 A8 :|2 %9
w: Quel-|qu'un me di- * * *|* soit l'aul- * * *|* * * * * tre|iour, que|ce moys|_ est me-|lan- co- li-|que,|
w: Ce|moys de- di- * * *|* é à _ _ _|_ _ _ _ _ l'a-|mour, à|noz plai-|* sirs (ce|croy- ie)à pic-|que,|
 A8 || z2 d2 d2 d2 | g4 f4 | e2 e2 d4 | c4 z2 d2 | f2 e2 dcde | f2 g4 f2- | f2 e2 d4 | z4 z2 f2 | %18
w: que,|le ros- si-|gnol taist|sa mu- si-|que, aux|champs n'ap- pa- * * *|* roist nul-|* le fleur,|le|
w: |||||||||
 f2 e2 dcde | f2 g4 f2- | f2 e2 d4 | z2 g2 g4 | g4 f4- | f2 f2 e2 d2 | g4 g2 f2 | e2 d2 g4 | %26
w: sol- eil ca- * * *|* che sa|_ lu- eur,|il sem-|ble brief|_ que tout la-|men- te, que|tout la- men-|
w: ||||||||
 g2 g2 f2 e2 | d4 z2 d2 | c2 B2 A4- | A2 A2 G2 F2 | B4 A2 d2 | c2 B2 A4- | A2 A2 G2 F2 | B4 A2 B2 | %34
w: te, ie luy res-|pondz, ie|luy res- pondz|_ m'a- my- e'ab-|sen- te, ie|luy res- pondz|_ m'a- my- e'ab-|sen- te, en|
w: ||||||||
 c2 c2 d4- | d2 B2 c4 | A4 G2 B2 | c2 c2 d4- | d2 B2 c4 |[M:2/4] A4 |[M:2/2] G8 |] %41
w: ce pa- is|_ tout est|en pleur, en|ce pa- is|_ tout est|en|pleur.|
w: |||||||
V:4
 z8 | z4 z2 G2 | d2 G2 d2 d2 | c2 d2 A2 A2 | D4 D2 D2 | G4 G2 G2 | c4 d2 A2 | B2 F2 G4 |1 D8 :|2 %9
w: |Quel-|qu'un me di- soit|l'aul- tre iour, que|ce moys, que|ce moys est|me- lan- co-|li- * *|que,|
w: |Ce|moys de- di- é|à l'a- mour, à|noz plaisirs, à|noz plai- sirs|(ce croy- ie)à|pic- * *|que,|
 D4 z2 A2 || G2 G2 d2 B2 | G2 G2 d4 | c4 d2 d2 | A4 B4 | A4 z2 d2 | d2 c2 G2 B2 | d2 c2 G2 d2 | %17
w: que, le|ros- si- gnol, le|ros- si- gnol|taist sa mu-|si- *|que, aux|champs n'ap- pa- roist|nul- le fleur, le|
w: ||||||||
 d2 c2 B4 | A4 z2 d2 | d2 c2 GABc | d2 c2 G2 B2 | d2 c2 G2 G2 | G4 B4 | F2 D2 A2 B2 | c4 G2 D2 | %25
w: so- leil ca-|che, le|so- lei ca- * * *|* sa lu- eur,|sa lu- eur, il|sem- ble|brief que tout la-|men- te, que|
w: ||||||||
 A2 B2 c4 | G4 z4 | z8 | z8 | z8 | z4 z2 B,2 | F2 G2 DCDE | F2 F2 G2 D2 | G4 D2 G2 | F2 F2 D4 | %35
w: tout la- men-|te,||||ie|luy res- pondz _ _ _|_ m'a- my- e'ab-|sen- te, en|ce pa- is|
w: ||||||||||
 G4 C4 | D4 G2 G2 | F2 F2 D4 | G4 C4 |[M:2/4] D4 |[M:2/2] G8 |] %41
w: tout est|en pleur, en|ce pa- is|tout est|en|pleur.|
w: ||||||

